app/result/img/review-bg.svg

<svg width="162" height="190" viewBox="0 0 162 190" fill="none" xmlns="http://www.w3.org/2000/svg">
<path fill-rule="evenodd" clip-rule="evenodd" d="M104.262 109.946C87.9011 114.197 70.2731 119.086 55.6559 111.215C40.3318 102.964 33.1379 86.861 31.8566 70.9588C30.5894 55.2313 36.2622 39.624 49.0101 28.7307C61.959 17.6657 79.9204 12.3868 97.7026 14.6924C115.549 17.0063 130.787 26.8364 140.217 40.5565C149.933 54.6906 155.404 72.306 147.625 87.3195C140.234 101.582 121.187 105.548 104.262 109.946Z" fill="#BE1622"/>
<path fill-rule="evenodd" clip-rule="evenodd" d="M123.925 147.105C113.981 159.399 103.482 172.888 86.506 174.678C68.7091 176.554 51.8731 167.799 39.8351 155.969C27.9294 144.269 21.5753 128.87 24.0653 113.318C26.5945 97.52 37.0861 83.5412 52.6966 75.6365C68.3631 67.7035 87.1871 67.1187 104.133 72.7737C121.591 78.5993 138.119 89.4881 142.401 105.571C146.469 120.85 134.211 134.388 123.925 147.105Z" fill="#BE1622"/>
</svg>

<svg width="162" height="190" viewBox="0 0 162 190" fill="none" xmlns="http://www.w3.org/2000/svg"><path fill-rule="evenodd" clip-rule="evenodd" d="M104.262 109.946c-16.36 4.251-33.989 9.14-48.606 1.269-15.324-8.251-22.518-24.354-23.8-40.256C30.59 55.23 36.263 39.624 49.01 28.73 61.96 17.666 79.92 12.387 97.703 14.692c17.846 2.314 33.084 12.144 42.514 25.864 9.716 14.135 15.187 31.75 7.408 46.764-7.391 14.262-26.438 18.228-43.363 22.626z" fill="#BE1622"/><path fill-rule="evenodd" clip-rule="evenodd" d="M123.925 147.105c-9.944 12.294-20.443 25.783-37.419 27.573-17.797 1.876-34.633-6.879-46.67-18.709-11.907-11.7-18.26-27.099-15.77-42.651 2.529-15.798 13.02-29.777 28.63-37.681 15.667-7.933 34.491-8.518 51.437-2.863 17.458 5.825 33.986 16.714 38.268 32.797 4.068 15.279-8.19 28.817-18.476 41.534z" fill="#BE1622"/></svg>
